X: 246
T:O admirabile commercium / Quando natus est / Rubum, quem viderat Moyses / Germinavit radix Jesse / Ecce Maria genuit
N: Derived from Jos2107-O_admirabile_commercium.krn
C: Josquin des Prez
%%abc-version 2.0
%%abcx-abcm2ps-target-version 5.9.1 (29 Sep 2008)
%%abc-creator hum2abc beta
%%abcx-conversion-date 2019/02/12 16:15:51
%%abc-edited-by Jesse Rodin
%%abc-edited-by Jesse Rodin; Victoria Chang 2011/05/24
%%abcx-initial-encoding-date 2011/05/24/
%%humdrum-veritas 2844283320
%%humdrum-veritas-data 3331701693
%%linebreak <none>
%%barnumbers 0
L: 1/4
M: 2/1
Q: 1/2=120
%%staves [1 2 3 4]
V: 1 clef=treble
V: 2 clef=treble-8
V: 3 clef=treble-8
V: 4 clef=bass
K: Bb
[V:1] A8- | 
[V:2] z8 | 
[V:3] z8 | 
[V:4] z8 | 
[V:1] A8 | 
[V:2] d8- | 
[V:3] z8 | 
[V:4] z8 | 
[V:1] B8- | 
[V:2] d8 | 
[V:3] z8 | 
[V:4] z8 | 
[V:1] B4G4 | 
[V:2] e8- | 
[V:3] z8 | 
[V:4] z8 | 
[V:1] G8 | 
[V:2] e4c4 | 
[V:3] z8 | 
[V:4] z8 | 
[V:1] z4G4 | 
[V:2] c8- | 
[V:3] z8 | 
[V:4] z8 | 
[V:1] A3GABc2- | 
[V:2] c8 | 
[V:3] z8 | 
[V:4] z8 | 
[V:1] c2BAG4 | 
[V:2] z4c4 | 
[V:3] z8 | 
[V:4] z8 | 
[V:1] F8 | 
[V:2] d3cdef2- | 
[V:3] z8 | 
[V:4] z8 | 
[V:1] z4B4- | 
[V:2] f2ede2d2 | 
[V:3] z8 | 
[V:4] z8 | 
[V:1] B4B4 | 
[V:2] B4e4- | 
[V:3] z8 | 
[V:4] z8 | 
[V:1] B4c4- | 
[V:2] e4e4 | 
[V:3] z8 | 
[V:4] z8 | 
[V:1] c2c2c4 | 
[V:2] e4f4- | 
[V:3] z8 | 
[V:4] z8 | 
[V:1] z2F3GAB | 
[V:2] f2f2f4 | 
[V:3] z8 | 
[V:4] z8 | 
[V:1] c2A4GF | 
[V:2] z2F3GAB | 
[V:3] z8 | 
[V:4] z8 | 
[V:1] =E2F4E2 | 
[V:2] c2d4c2 | 
[V:3] A8- | 
[V:4] z8 | 
[V:1] F8- | 
[V:2] d8- | 
[V:3] A8 | 
[V:4] D,8- | 
[V:1] F8 | 
[V:2] d8 | 
[V:3] B8- | 
[V:4] D,8 | 
[V:1] G8- | 
[V:2] B8- | 
[V:3] B4G4 | 
[V:4] E,8- | 
[V:1] G4=E4 | 
[V:2] B4c4 | 
[V:3] G8 | 
[V:4] E,4C,4 | 
[V:1] =E8- | 
[V:2] c8- | 
[V:3] z4G4 | 
[V:4] C,8- | 
[V:1] E8- | 
[V:2] c8- | 
[V:3] A3GABc2- | 
[V:4] C,8 | 
[V:1] E8 | 
[V:2] c8 | 
[V:3] c2BAG4 | 
[V:4] z4C,4 | 
[V:1] z8 | 
[V:2] z8 | 
[V:3] F8 | 
[V:4] D,3C,D,E,F,2- | 
[V:1] z8 | 
[V:2] z8 | 
[V:3] z4B4- | 
[V:4] F,2E,D,E,2D,2 | 
[V:1] z8 | 
[V:2] z8 | 
[V:3] B4B4 | 
[V:4] B,,4E,4- | 
[V:1] z8 | 
[V:2] z8 | 
[V:3] B4c4- | 
[V:4] E,2E,2E,4 | 
[V:1] z8 | 
[V:2] z8 | 
[V:3] c2c2c4- | 
[V:4] F,6F,2 | 
[V:1] z8 | 
[V:2] z8 | 
[V:3] c2B2c2d2- | 
[V:4] F,2G,2A,2B,2 | 
[V:1] z8 | 
[V:2] z8 | 
[V:3] dcdBc4 | 
[V:4] F,2B,3A,A,G, | 
[V:1] z4F4 | 
[V:2] z8 | 
[V:3] B8 | 
[V:4] B,8- | 
[V:1] G4F4 | 
[V:2] z4f4 | 
[V:3] z8 | 
[V:4] B,8 | 
[V:1] B4c2d2- | 
[V:2] g4f4- | 
[V:3] z8 | 
[V:4] z8 | 
[V:1] dcdBc2d2- | 
[V:2] f2d2e2f2 | 
[V:3] z8 | 
[V:4] z8 | 
[V:1] dcB3AAG | 
[V:2] B4c3B | 
[V:3] z8 | 
[V:4] z8 | 
[V:1] B4z2B2- | 
[V:2] G3FG4 | 
[V:3] B8 | 
[V:4] z8 | 
[V:1] B2AGA4 | 
[V:2] F4z2f2- | 
[V:3] c8 | 
[V:4] F,8 | 
[V:1] B3AG2c2- | 
[V:2] f2=ed=e4 | 
[V:3] B4c4- | 
[V:4] G,4C,4 | 
[V:1] cBAGA4- | 
[V:2] A4f4- | 
[V:3] c2c2c3B | 
[V:4] F,6F,2 | 
[V:1] A4d4 | 
[V:2] f4B4 | 
[V:3] c2d4B2 | 
[V:4] F,4G,4 | 
[V:1] c2A2B4 | 
[V:2] z2f2d3=e | 
[V:3] c2d4B2 | 
[V:4] A,2F,2G,4 | 
[V:1] A2c3BAG | 
[V:2] f8- | 
[V:3] d2c4d2- | 
[V:4] F,8- | 
[V:1] A2B4A2 | 
[V:2] f8- | 
[V:3] d2cBc4 | 
[V:4] F,8 | 
[V:1] B6AG | 
[V:2] f8 | 
[V:3] B8- | 
[V:4] z4B,,4- | 
[V:1] F2G2D3E | 
[V:2] z8 | 
[V:3] B8 | 
[V:4] B,,2B,,2B,,3C, | 
[V:1] FGF4ED | 
[V:2] z8 | 
[V:3] z8 | 
[V:4] D,3E,F,4- | 
[V:1] C2D4C2 | 
[V:2] z8 | 
[V:3] z8 | 
[V:4] F,2D,2E,4 | 
[V:1] D3=EFGA2 | 
[V:2] F6F2 | 
[V:3] z8 | 
[V:4] D,8- | 
[V:1] D2A3GF=E | 
[V:2] F3GA2B2- | 
[V:3] z8 | 
[V:4] D,8- | 
[V:1] F2G4^F2 | 
[V:2] B2AGA4 | 
[V:3] z8 | 
[V:4] D,8 | 
[V:1] G3ABcd2 | 
[V:2] G8- | 
[V:3] B6B2 | 
[V:4] z8 | 
[V:1] G2d3cBA | 
[V:2] G8- | 
[V:3] B3cd2e2- | 
[V:4] z8 | 
[V:1] B2c4=B2 | 
[V:2] G8 | 
[V:3] e2dcd4 | 
[V:4] z8 | 
[V:1] c6B2 | 
[V:2] z4e4- | 
[V:3] c8 | 
[V:4] z8 | 
[V:1] G4B4 | 
[V:2] e4d4 | 
[V:3] z8 | 
[V:4] z8 | 
[V:1] A4G4- | 
[V:2] c3Bc4 | 
[V:3] z8 | 
[V:4] z4E,4- | 
[V:1] G4F4 | 
[V:2] B8 | 
[V:3] z8 | 
[V:4] E,4D,4 | 
[V:1] z2G3FGA | 
[V:2] z4E4 | 
[V:3] e8 | 
[V:4] C,3B,,C,4 | 
[V:1] B4c4 | 
[V:2] F3GA2F2 | 
[V:3] d4c4- | 
[V:4] B,,4F,4- | 
[V:1] A4B3c | 
[V:2] f3=edcd2- | 
[V:3] c4B4 | 
[V:4] F,4G,4- | 
[V:1] d2G4c2- | 
[V:2] d2e3cc2- | 
[V:3] z2B2c4 | 
[V:4] G,4E,4 | 
[V:1] cAd3cB2- | 
[V:2] c2f2d2g2- | 
[V:3] A4B3c | 
[V:4] F,4G,4- | 
[V:1] B2AGA4 | 
[V:2] gfd=ef3=e | 
[V:3] d2B2c4 | 
[V:4] G,4F,4 | 
[V:1] B4z2F2 | 
[V:2] dcd4B2 | 
[V:3] B8 | 
[V:4] z2B,,2B,,3C, | 
[V:1] F3GA2B2- | 
[V:2] A2f4d2 | 
[V:3] z8 | 
[V:4] D,3E,F,2B,,2 | 
[V:1] B2A2B3A | 
[V:2] c4B4 | 
[V:3] z8 | 
[V:4] F,4B,,3C, | 
[V:1] F2G4F2 | 
[V:2] z2B3cd2 | 
[V:3] z4B4 | 
[V:4] D,2E,4D,2 | 
[V:1] G8 | 
[V:2] G4z2G2- | 
[V:3] B3cd2e2- | 
[V:4] E,3D,B,,2C,2- | 
[V:1] z8 | 
[V:2] GAB2E3F | 
[V:3] e2d2e3d | 
[V:4] C,2B,,2C,2E,2- | 
[V:1] z8 | 
[V:2] G2A2F3G | 
[V:3] B2c4=B2 | 
[V:4] E,2D,C,D,4 | 
[V:1] z4G4 | 
[V:2] A2A2G4- | 
[V:3] c8- | 
[V:4] C,6D,2 | 
[V:1] G4A4- | 
[V:2] G4F4 | 
[V:3] c8 | 
[V:4] E,4F,4 | 
[V:1] A4G4 | 
[V:2] z2c3BAG | 
[V:3] z4c4 | 
[V:4] C,8 | 
[V:1] z2c4=BA | 
[V:2] A4G4 | 
[V:3] c4d4- | 
[V:4] z4G,4 | 
[V:1] =B4c4- | 
[V:2] z8 | 
[V:3] d4c4 | 
[V:4] G,4A,4- | 
[V:1] c4z2B2- | 
[V:2] c4d4 | 
[V:3] A4B4 | 
[V:4] A,4G,4 | 
[V:1] B2AGA4 | 
[V:2] e4c2f2- | 
[V:3] c8 | 
[V:4] E,4F,4 | 
[V:1] B8 | 
[V:2] f2=ed=e4 | 
[V:3] B4z2B2- | 
[V:4] G,8 | 
[V:1] z8 | 
[V:2] f8 | 
[V:3] B2AGA4 | 
[V:4] F,8 | 
[V:1] z2B4AG | 
[V:2] z8 | 
[V:3] G3AB2c2 | 
[V:4] z8 | 
[V:1] A4G3A | 
[V:2] z8 | 
[V:3] F2c3Bc2 | 
[V:4] z8 | 
[V:1] B2c4B2- | 
[V:2] z8 | 
[V:3] d2c2d3c | 
[V:4] z8 | 
[V:1] B2A2G4 | 
[V:2] z8 | 
[V:3] d=ef4=e2 | 
[V:4] z8 | 
[V:1] F8 | 
[V:2] z8 | 
[V:3] f8 | 
[V:4] z2F,4E,D, | 
[V:1] z8 | 
[V:2] z4f4- | 
[V:3] z8 | 
[V:4] E,4D,3E, | 
[V:1] z8 | 
[V:2] f2ede4 | 
[V:3] z8 | 
[V:4] F,2G,2C,2G,2- | 
[V:1] z8 | 
[V:2] d4f3e | 
[V:3] z8 | 
[V:4] G,2F,2D,2F,2- | 
[V:1] z8 | 
[V:2] dcc4=B2 | 
[V:3] z4F4 | 
[V:4] F,E,C,2D,4 | 
[V:1] z4F4 | 
[V:2] c4d4 | 
[V:3] G4B4- | 
[V:4] C,4B,,4 | 
[V:1] G4B4- | 
[V:2] G6A2 | 
[V:3] B2B2B3c | 
[V:4] E,6D,2 | 
[V:1] B2B2B3G | 
[V:2] B8 | 
[V:3] ded4B2 | 
[V:4] B,,8 | 
[V:1] B2A3GF=E | 
[V:2] z8 | 
[V:3] d4c4 | 
[V:4] z4F,4 | 
[V:1] D8 | 
[V:2] z2B3cd=e | 
[V:3] z8 | 
[V:4] G,4B,4- | 
[V:1] z8 | 
[V:2] f2g2d2f2- | 
[V:3] z8 | 
[V:4] B,2B,2B,3A, | 
[V:1] z8 | 
[V:2] f=ec2=e2d2- | 
[V:3] z8 | 
[V:4] F,2A,2G,3F, | 
[V:1] z4A4 | 
[V:2] d2cBA4 | 
[V:3] d4d3c | 
[V:4] D,8 | 
[V:1] A3GABc2- | 
[V:2] z2D2F3G | 
[V:3] d=ef4=ed | 
[V:4] z8 | 
[V:1] c2BAG3A | 
[V:2] A3Bc3B | 
[V:3] c4e4- | 
[V:4] z8 | 
[V:1] B2c2F3G | 
[V:2] G2A2B3A | 
[V:3] e4d4 | 
[V:4] z8 | 
[V:1] A2B4A2 | 
[V:2] F2G2F4 | 
[V:3] c2B2c4 | 
[V:4] z4F,4 | 
[V:1] B4z2B2- | 
[V:2] B4z2B2- | 
[V:3] B8- | 
[V:4] G,2B,3A,G,2- | 
[V:1] BAF2G4 | 
[V:2] Bcd2G4 | 
[V:3] B8- | 
[V:4] G,F,D,2E,3D, | 
[V:1] F8 ||  
[V:2] d8 ||  
[V:3] B8 ||  
[V:4] B,,8 ||  
[V:1]  [K:F] D8 | 
[V:2]  [K:F] z8 | 
[V:3]  [K:F] z8 | 
[V:4]  [K:F] z8 | 
[V:1] D8 | 
[V:2] z8 | 
[V:3] z8 | 
[V:4] z8 | 
[V:1] C8 | 
[V:2] A8 | 
[V:3] z8 | 
[V:4] z8 | 
[V:1] z4F4 | 
[V:2] A8 | 
[V:3] z8 | 
[V:4] z8 | 
[V:1] G3ABcB2- | 
[V:2] G8 | 
[V:3] z8 | 
[V:4] z8 | 
[V:1] B2AGA2G2 | 
[V:2] z4c4 | 
[V:3] z8 | 
[V:4] z8 | 
[V:1] B2A3GAB | 
[V:2] d3efgf2- | 
[V:3] z8 | 
[V:4] z8 | 
[V:1] c2d4cB | 
[V:2] f2edf2e2 | 
[V:3] z8 | 
[V:4] z8 | 
[V:1] A4D3E | 
[V:2] f4z2f2- | 
[V:3] z8 | 
[V:4] D,8 | 
[V:1] F8 | 
[V:2] f2d2f4 | 
[V:3] A8 | 
[V:4] D,8 | 
[V:1] z8 | 
[V:2] e3cc2f2 | 
[V:3] A8 | 
[V:4] C,4F,4 | 
[V:1] z8 | 
[V:2] e2d3cBA | 
[V:3] G8 | 
[V:4] G,3A,B,4- | 
[V:1] z8 | 
[V:2] G4F4 | 
[V:3] z4c4 | 
[V:4] B,2A,G,A,3G, | 
[V:1] z8 | 
[V:2] z8 | 
[V:3] d3efgf2- | 
[V:4] B,6A,G, | 
[V:1] z4B4 | 
[V:2] z8 | 
[V:3] f2edf2e2 | 
[V:4] A,2B,2G,4 | 
[V:1] A6F2 | 
[V:2] z4f4 | 
[V:3] f8 | 
[V:4] F,8 | 
[V:1] G3AB4 | 
[V:2] e2c2d3e | 
[V:3] z8 | 
[V:4] z8 | 
[V:1] A4G4 | 
[V:2] f4e4 | 
[V:3] z8 | 
[V:4] z8 | 
[V:1] z8 | 
[V:2] d4z4 | 
[V:3] z4f4 | 
[V:4] B,4A,2F,2 | 
[V:1] z8 | 
[V:2] z8 | 
[V:3] e2c2d3e | 
[V:4] G,3A,B,4 | 
[V:1] z8 | 
[V:2] z8 | 
[V:3] f4e4 | 
[V:4] A,4G,4 | 
[V:1] z8 | 
[V:2] z8 | 
[V:3] d2d2c2_e2- | 
[V:4] B,4A,2G,2- | 
[V:1] z8 | 
[V:2] z8 | 
[V:3] edd4c2 | 
[V:4] G,F,D,2_E,4 | 
[V:1] z2B2A2F2 | 
[V:2] z4f4 | 
[V:3] d8 | 
[V:4] D,8 | 
[V:1] G3AB4 | 
[V:2] e2c2d3e | 
[V:3] z8 | 
[V:4] z8 | 
[V:1] A4G4 | 
[V:2] f4e4 | 
[V:3] z8 | 
[V:4] z8 | 
[V:1] B4A4- | 
[V:2] d6c2 | 
[V:3] z8 | 
[V:4] z8 | 
[V:1] A2GFG2B2- | 
[V:2] d2f2e2d2- | 
[V:3] z8 | 
[V:4] z8 | 
[V:1] BAA4G2 | 
[V:2] dcA2B4 | 
[V:3] z8 | 
[V:4] z8 | 
[V:1] A8 | 
[V:2] A8 | 
[V:3] z2c4d2- | 
[V:4] z4F,4 | 
[V:1] z8 | 
[V:2] z8 | 
[V:3] d2e4f2- | 
[V:4] G,4A,4 | 
[V:1] z8 | 
[V:2] z8 | 
[V:3] fedcd2c2 | 
[V:4] B,6A,2 | 
[V:1] z8 | 
[V:2] z8 | 
[V:3] _e2d3cA2 | 
[V:4] G,4F,4 | 
[V:1] z8 | 
[V:2] z4z2c2 | 
[V:3] B2A4G2 | 
[V:4] G,2D,2E,4 | 
[V:1] z8 | 
[V:2] d2e2f4- | 
[V:3] A8 | 
[V:4] D,8 | 
[V:1] z2F2G2A2 | 
[V:2] f2ede2d2- | 
[V:3] z8 | 
[V:4] z8 | 
[V:1] B6AG | 
[V:2] dcBAG2d2- | 
[V:3] z8 | 
[V:4] z8 | 
[V:1] A4G2B2- | 
[V:2] d2c2_e2d2- | 
[V:3] z8 | 
[V:4] z8 | 
[V:1] BAA4G2 | 
[V:2] dcA2B4 | 
[V:3] z8 | 
[V:4] z8 | 
[V:1] A2c3BAG | 
[V:2] A4c4 | 
[V:3] z8 | 
[V:4] z8 | 
[V:1] B2A3GFE | 
[V:2] d4f4- | 
[V:3] z8 | 
[V:4] z8 | 
[V:1] D4A4 | 
[V:2] f2f2f4 | 
[V:3] z8 | 
[V:4] z4F,4 | 
[V:1] z4F4 | 
[V:2] e2d3cBA | 
[V:3] z8 | 
[V:4] G,4B,4- | 
[V:1] G4B4- | 
[V:2] G8- | 
[V:3] z8 | 
[V:4] B,2B,2B,4 | 
[V:1] B2B2B4 | 
[V:2] G8 | 
[V:3] z4B4 | 
[V:4] z8 | 
[V:1] z2G3ABc | 
[V:2] z8 | 
[V:3] c4_e4- | 
[V:4] z8 | 
[V:1] G2c3BAG | 
[V:2] z4c4 | 
[V:3] e2_e2_e4 | 
[V:4] z8 | 
[V:1] B2A4d2- | 
[V:2] d4f4- | 
[V:3] d2f3_edc | 
[V:4] z8 | 
[V:1] dcB4A2 | 
[V:2] f2f2f3e | 
[V:3] B2d2c4 | 
[V:4] z4F,4 | 
[V:1] B8 | 
[V:2] dcB3cd2 | 
[V:3] B3cd2G2 | 
[V:4] G,4B,4- | 
[V:1] z8 | 
[V:2] G2d2G2B2 | 
[V:3] d2G2d4 | 
[V:4] B,2B,2B,4 | 
[V:1] z8 | 
[V:2] c2d2G2g2- | 
[V:3] z8 | 
[V:4] A,2B,3A,B,G, | 
[V:1] z4z2d2 | 
[V:2] g2^f2g2G2 | 
[V:3] c4d4 | 
[V:4] A,4G,4 | 
[V:1] c2d4cB | 
[V:2] A2B4AG | 
[V:3] f6f2 | 
[V:4] z8 | 
[V:1] AGABc2A2- | 
[V:2] F2d2c2d2- | 
[V:3] f4e2f2- | 
[V:4] z8 | 
[V:1] A2d4^c2 | 
[V:2] d2cBA4 | 
[V:3] fefde4 | 
[V:4] z8 | 
[V:1] d8 | 
[V:2] B3GA2B2 | 
[V:3] d8- | 
[V:4] z2G,2F,2G,2- | 
[V:1] z8 | 
[V:2] z2G2F2G2- | 
[V:3] d8- | 
[V:4] G,A,B,G,A,2G,2 | 
[V:1] z8 | 
[V:2] GABGA2G2 | 
[V:3] d8 | 
[V:4] z2G,2F,2G,2- | 
[V:1] z8 | 
[V:2] z2G2F2G2- | 
[V:3] z8 | 
[V:4] G,A,B,G,A,2G,2 | 
[V:1] z8 | 
[V:2] GABGA2G2 | 
[V:3] z2d2c2d2- | 
[V:4] z8 | 
[V:1] z2d2c2d2- | 
[V:2] d4z4 | 
[V:3] defde2d2 | 
[V:4] z8 | 
[V:1] defde2f2- | 
[V:2] z8 | 
[V:3] z2d2c2d2- | 
[V:4] z8 | 
[V:1] fed4^c2 | 
[V:2] z8 | 
[V:3] defde4 | 
[V:4] z8 | 
[V:1] d8- | 
[V:2] z4d4 | 
[V:3] d8- | 
[V:4] G,4B,4- | 
[V:1] d8 | 
[V:2] f6f2 | 
[V:3] d8 | 
[V:4] B,2B,2B,4 | 
[V:1] z8 | 
[V:2] f4e4 | 
[V:3] z8 | 
[V:4] A,4G,4 | 
[V:1] z8 | 
[V:2] d4f4- | 
[V:3] z8 | 
[V:4] B,6A,2 | 
[V:1] z8 | 
[V:2] f2e2c2d2- | 
[V:3] z8 | 
[V:4] F,2G,2A,2B,2- | 
[V:1] z8 | 
[V:2] dcBAB4 | 
[V:3] z4d4 | 
[V:4] B,A,G,F,G,4 | 
[V:1] z4A4 | 
[V:2] A8 | 
[V:3] f6f2 | 
[V:4] D,8 | 
[V:1] c2c2c4 | 
[V:2] z8 | 
[V:3] f4e4 | 
[V:4] z8 | 
[V:1] B4A4 | 
[V:2] z8 | 
[V:3] d4f4- | 
[V:4] z8 | 
[V:1] c6B2 | 
[V:2] z8 | 
[V:3] f2e2c2d2 | 
[V:4] z8 | 
[V:1] G2A3GB2- | 
[V:2] z8 | 
[V:3] e2f3edc | 
[V:4] z8 | 
[V:1] B2A4G2 | 
[V:2] z8 | 
[V:3] d2A2B4 | 
[V:4] z8 | 
[V:1] A8 | 
[V:2] d6e2 | 
[V:3] A4d4- | 
[V:4] D,8- | 
[V:1] z4A4- | 
[V:2] f6e2 | 
[V:3] d2e2f4- | 
[V:4] D,8 | 
[V:1] A2B2c4- | 
[V:2] c4A4 | 
[V:3] f2e2c4- | 
[V:4] F,8 | 
[V:1] c2B2G4- | 
[V:2] c6B2 | 
[V:3] c2d2_e4- | 
[V:4] C,8 | 
[V:1] G4G4 | 
[V:2] G8 | 
[V:3] e2d2B4- | 
[V:4] _E,8- | 
[V:1] B6AG | 
[V:2] g8 | 
[V:3] B2AGB2c2 | 
[V:4] E,8 | 
[V:1] B4A4 | 
[V:2] f8 | 
[V:3] d2e2f2d2 | 
[V:4] D,8- | 
[V:1] z4A4 | 
[V:2] d4f4- | 
[V:3] f6e2 | 
[V:4] D,8 | 
[V:1] A3Bcdc2- | 
[V:2] f2e2c4 | 
[V:3] c4A4 | 
[V:4] F,8 | 
[V:1] cBAGA4 | 
[V:2] A4c4- | 
[V:3] c6d2 | 
[V:4] F,8 | 
[V:1] G3ABcB2- | 
[V:2] c2B2G4- | 
[V:3] _e6d2 | 
[V:4] _E,8- | 
[V:1] BAGFG4 | 
[V:2] G2A2B2c2 | 
[V:3] B4G4 | 
[V:4] E,8 | 
[V:1] F8- | 
[V:2] d2e2f2d2- | 
[V:3] B4A4 | 
[V:4] D,8 | 
[V:1] F8- | 
[V:2] dcA2B4 | 
[V:3] d8- | 
[V:4] D,8- | 
[V:1] F8 ||  
[V:2] A8 ||  
[V:3] d8 ||  
[V:4] D,8 ||  
[V:1] [M:2/1]z8 | 
[V:2] [M:2/1]z8 | 
[V:3] [M:2/1]z8 | 
[V:4] [M:2/1]D,8 | 
[V:1] z8 | 
[V:2] z8 | 
[V:3] z8 | 
[V:4] E,4F,4 | 
[V:1] z8 | 
[V:2] z8 | 
[V:3] z8 | 
[V:4] G,6G,2 | 
[V:1] z8 | 
[V:2] z8 | 
[V:3] G8 | 
[V:4] G,4E,4 | 
[V:1] z8 | 
[V:2] z8 | 
[V:3] A4B4 | 
[V:4] F,4G,4 | 
[V:1] z8 | 
[V:2] z8 | 
[V:3] c6c2 | 
[V:4] C,8- | 
[V:1] G8 | 
[V:2] z4c4- | 
[V:3] c6B2 | 
[V:4] C,8 | 
[V:1] A4B4 | 
[V:2] c4d4 | 
[V:3] A4G4 | 
[V:4] z8 | 
[V:1] c6c2 | 
[V:2] e4f4- | 
[V:3] c4F4 | 
[V:4] z8 | 
[V:1] c8- | 
[V:2] f2f2f4 | 
[V:3] A6B2 | 
[V:4] z8 | 
[V:1] c8- | 
[V:2] _e6dc | 
[V:3] c8 | 
[V:4] z8 | 
[V:1] c8 | 
[V:2] _e4_e4 | 
[V:3] z4c4- | 
[V:4] C,6D,2 | 
[V:1] G6A2 | 
[V:2] _e8- | 
[V:3] c4B4 | 
[V:4] _E,4E,4 | 
[V:1] B4B4 | 
[V:2] e8 | 
[V:3] G4B4- | 
[V:4] _E,8 | 
[V:1] B8 | 
[V:2] d6_e2 | 
[V:3] B2B2B3A | 
[V:4] B,,8 | 
[V:1] A6B2 | 
[V:2] f4f4 | 
[V:3] F8- | 
[V:4] z8 | 
[V:1] c4c4 | 
[V:2] z4f4 | 
[V:3] F8 | 
[V:4] z8 | 
[V:1] z4c4 | 
[V:2] f4f4 | 
[V:3] z8 | 
[V:4] z8 | 
[V:1] c4c4 | 
[V:2] _e6dc | 
[V:3] z8 | 
[V:4] z8 | 
[V:1] B6AG | 
[V:2] _e3fg4- | 
[V:3] z8 | 
[V:4] z8 | 
[V:1] B3cd4- | 
[V:2] g4f4 | 
[V:3] z8 | 
[V:4] z8 | 
[V:1] d4c4 | 
[V:2] g2d2_e4 | 
[V:3] z8 | 
[V:4] z8 | 
[V:1] d2A2B4 | 
[V:2] d8 | 
[V:3] z8 | 
[V:4] D,6E,2 | 
[V:1] A8 | 
[V:2] z8 | 
[V:3] A6B2 | 
[V:4] F,4F,4 | 
[V:1] z8 | 
[V:2] z8 | 
[V:3] c4c4 | 
[V:4] z4F,4 | 
[V:1] z8 | 
[V:2] z8 | 
[V:3] z4c4 | 
[V:4] F,4F,4 | 
[V:1] z8 | 
[V:2] z8 | 
[V:3] c4c4 | 
[V:4] _E,6D,C, | 
[V:1] z8 | 
[V:2] z8 | 
[V:3] B6AG | 
[V:4] _E,3F,G,4- | 
[V:1] z8 | 
[V:2] z8 | 
[V:3] B3cd4- | 
[V:4] G,4F,4 | 
[V:1] z8 | 
[V:2] z8 | 
[V:3] d4c4 | 
[V:4] G,2D,2_E,4 | 
[V:1] z8 | 
[V:2] z8 | 
[V:3] d2A2B4 | 
[V:4] D,6E,2 | 
[V:1] z8 | 
[V:2] c8 | 
[V:3] A4c4- | 
[V:4] F,4C,3D, | 
[V:1] G8 | 
[V:2] g8 | 
[V:3] c2B2G3A | 
[V:4] E,3F,G,4- | 
[V:1] d8 | 
[V:2] g4g4 | 
[V:3] B4G4- | 
[V:4] G,4z4 | 
[V:1] d4d4 | 
[V:2] g6g2 | 
[V:3] G2A2B2c2 | 
[V:4] z8 | 
[V:1] d6d2 | 
[V:2] f4d4 | 
[V:3] d4B4 | 
[V:4] z8 | 
[V:1] c4c4 | 
[V:2] _e2c2_e4- | 
[V:3] c8 | 
[V:4] C,8 | 
[V:1] B2G2d4- | 
[V:2] e4d4 | 
[V:3] G8 | 
[V:4] G,8 | 
[V:1] d2c2B4- | 
[V:2] B6AG | 
[V:3] d8 | 
[V:4] G,4G,4 | 
[V:1] B2AGB4 | 
[V:2] B3cd3e | 
[V:3] d4d4 | 
[V:4] G,6G,2 | 
[V:1] A8 | 
[V:2] f8 | 
[V:3] d6d2 | 
[V:4] F,4D,4 | 
[V:1] z8 | 
[V:2] z8 | 
[V:3] c4A4 | 
[V:4] E,4F,4 | 
[V:1] z8 | 
[V:2] z8 | 
[V:3] B4c4 | 
[V:4] G,3F,E,4 | 
[V:1] z8 | 
[V:2] z4d4 | 
[V:3] d3cB4 | 
[V:4] D,8 | 
[V:1] z4A4 | 
[V:2] e4f4 | 
[V:3] A8 | 
[V:4] z8 | 
[V:1] B4c4 | 
[V:2] g3fe4 | 
[V:3] z8 | 
[V:4] z8 | 
[V:1] d3cB4 | 
[V:2] d8- | 
[V:3] z8 | 
[V:4] z4G,4 | 
[V:1] A8- | 
[V:2] d8 | 
[V:3] z4d4 | 
[V:4] F,4D,4 | 
[V:1] A8 | 
[V:2] z8 | 
[V:3] c4A4 | 
[V:4] F,6E,D, | 
[V:1] z8 | 
[V:2] z8 | 
[V:3] c6BA | 
[V:4] E,2F,2C,3D, | 
[V:1] z8 | 
[V:2] z8 | 
[V:3] G3BA4 | 
[V:4] E,F,G,3^F,F,E, | 
[V:1] z8 | 
[V:2] z4g4 | 
[V:3] G8 | 
[V:4] G,4E,4 | 
[V:1] z4d4 | 
[V:2] f4d4 | 
[V:3] d8 | 
[V:4] D,8 | 
[V:1] c4A4 | 
[V:2] f6ed | 
[V:3] z8 | 
[V:4] z8 | 
[V:1] c6BA | 
[V:2] e2f2c3d | 
[V:3] z8 | 
[V:4] z8 | 
[V:1] G2B2A4 | 
[V:2] efg3^f^fe | 
[V:3] z8 | 
[V:4] z8 | 
[V:1] G2B2B2B2 | 
[V:2] g4d3e | 
[V:3] z8 | 
[V:4] z2G,2G,2G,2 | 
[V:1] A2A2B4 | 
[V:2] f4B4 | 
[V:3] z8 | 
[V:4] F,2F,2G,4 | 
[V:1] A8 | 
[V:2] z2f2f2f2 | 
[V:3] z2d2d2d2 | 
[V:4] D,8 | 
[V:1] z4z2d2 | 
[V:2] e2e2f4 | 
[V:3] c2c2d4 | 
[V:4] z8 | 
[V:1] c2d2A4 | 
[V:2] e2f2f2f2 | 
[V:3] A8- | 
[V:4] z2D,2D,2D,2 | 
[V:1] z2c2A3B | 
[V:2] e2e2f4 | 
[V:3] A8- | 
[V:4] C,2C,2D,4 | 
[V:1] c8 ||  
[V:2] e8 ||  
[V:3] A8 ||  
[V:4] A,,8 ||  
[V:1] [M:2/1]z8 | 
[V:2] [M:2/1]z8 | 
[V:3] [M:2/1]z8 | 
[V:4] [M:2/1]D,6E,2 | 
[V:1] z8 | 
[V:2] z8 | 
[V:3] z8 | 
[V:4] F,4G,4 | 
[V:1] z8 | 
[V:2] z8 | 
[V:3] G6A2 | 
[V:4] E,4G,4- | 
[V:1] z8 | 
[V:2] z8 | 
[V:3] B4c4 | 
[V:4] G,4A,4 | 
[V:1] z8 | 
[V:2] z8 | 
[V:3] A3Bc2d2- | 
[V:4] F,6E,D, | 
[V:1] z8 | 
[V:2] z8 | 
[V:3] d2B4AG | 
[V:4] F,2G,2E,4 | 
[V:1] z8 | 
[V:2] z8 | 
[V:3] B3cA2B2- | 
[V:4] D,8- | 
[V:1] z8 | 
[V:2] d6e2 | 
[V:3] B2AGB2c2 | 
[V:4] D,8 | 
[V:1] z8 | 
[V:2] f4g4 | 
[V:3] A4G4 | 
[V:4] z8 | 
[V:1] G6A2 | 
[V:2] e4g4- | 
[V:3] z8 | 
[V:4] z8 | 
[V:1] B4c4 | 
[V:2] g4a4 | 
[V:3] z8 | 
[V:4] z8 | 
[V:1] A3Bc2d2- | 
[V:2] f6ed | 
[V:3] z8 | 
[V:4] z8 | 
[V:1] d2B4AG | 
[V:2] f2g2e4 | 
[V:3] z8 | 
[V:4] z8 | 
[V:1] B3cA4 | 
[V:2] d4f4 | 
[V:3] z8 | 
[V:4] z8 | 
[V:1] G4B4- | 
[V:2] e4d2g2- | 
[V:3] z8 | 
[V:4] z8 | 
[V:1] B2AGA2B2- | 
[V:2] g2fef2g2- | 
[V:3] z8 | 
[V:4] z8 | 
[V:1] B2AGA2B2- | 
[V:2] g2fefedc | 
[V:3] z8 | 
[V:4] z8 | 
[V:1] BcA2G4 | 
[V:2] dcf4e2 | 
[V:3] z8 | 
[V:4] z4C,4 | 
[V:1] F8- | 
[V:2] f6e2 | 
[V:3] z8 | 
[V:4] D,4F,4- | 
[V:1] F8 | 
[V:2] d4c4 | 
[V:3] z4F4 | 
[V:4] F,2G,2A,4 | 
[V:1] z8 | 
[V:2] B2G2d4- | 
[V:3] G4B4- | 
[V:4] B,4B,,4 | 
[V:1] z8 | 
[V:2] d2c2B2AG | 
[V:3] B2A2B4 | 
[V:4] z2F,2G,2B,2- | 
[V:1] z8 | 
[V:2] F4f4 | 
[V:3] c4d4- | 
[V:4] B,A,A,G,B,4 | 
[V:1] z4F4 | 
[V:2] z2f4d2 | 
[V:3] d2cBd4 | 
[V:4] B,,8 | 
[V:1] G4B4- | 
[V:2] _e4d2B2 | 
[V:3] c4B4 | 
[V:4] z8 | 
[V:1] B2A2B4 | 
[V:2] f4z4 | 
[V:3] d8 | 
[V:4] z2F,2G,2B,2- | 
[V:1] c4d4- | 
[V:2] F4B3c | 
[V:3] c4B4 | 
[V:4] B,A,A,G,B,4 | 
[V:1] d2cBd4 | 
[V:2] def2F2B2 | 
[V:3] f6d2 | 
[V:4] B,,8 | 
[V:1] c3Bc2d2- | 
[V:2] A2F2A2B2 | 
[V:3] e2f3edc | 
[V:4] z8 | 
[V:1] dcB4A2 | 
[V:2] G4F2f2 | 
[V:3] B4c4 | 
[V:4] z4F,4 | 
[V:1] B8- | 
[V:2] _e2d3cBA | 
[V:3] B8 | 
[V:4] G,3F,G,A,B,2- | 
[V:1] B8 | 
[V:2] GFf4e2 | 
[V:3] z4B4 | 
[V:4] B,A,G,F,G,4 | 
[V:1] z8 | 
[V:2] f2c2z2c2- | 
[V:3] c3BAGF2- | 
[V:4] F,8- | 
[V:1] z8 | 
[V:2] cBAGF2f2- | 
[V:3] F2f3ed2 | 
[V:4] F,8- | 
[V:1] z8 | 
[V:2] fed2c4 | 
[V:3] c2B4A2 | 
[V:4] F,8 | 
[V:1] z4B4 | 
[V:2] B6AG | 
[V:3] B4d4 | 
[V:4] z4B,,4 | 
[V:1] c3BAGF2- | 
[V:2] A2F4f2- | 
[V:3] c2f3ed2- | 
[V:4] F,3G,A,2B,2 | 
[V:1] F2f3ed2 | 
[V:2] fed2c2F2 | 
[V:3] dcB2A2f2- | 
[V:4] B,,4F,3G, | 
[V:1] c2B3AAG | 
[V:2] f8- | 
[V:3] f2d2c4 | 
[V:4] A,2B,2F,4 | 
[V:1] B2d2c2d2- | 
[V:2] f8 | 
[V:3] B4z4 | 
[V:4] z2B,2A,2B,2- | 
[V:1] d2cBA4 | 
[V:2] z4z2f2 | 
[V:3] z4z2d2 | 
[V:4] B,2A,G,F,4 | 
[V:1] z8 | 
[V:2] _e2f4_ed | 
[V:3] c2d4cB | 
[V:4] z8 | 
[V:1] z2B2A2B2- | 
[V:2] c2B2z4 | 
[V:3] A2G2z4 | 
[V:4] z2G,2F,2G,2- | 
[V:1] B2AGF4 | 
[V:2] z4z2f2 | 
[V:3] z4z2d2 | 
[V:4] G,2F,_E,D,4 | 
[V:1] z8 | 
[V:2] _e2f4_ed | 
[V:3] c2d4cB | 
[V:4] z8 | 
[V:1] z2B2A2B2- | 
[V:2] c2d3cBA | 
[V:3] A2G2z4 | 
[V:4] z2G,2F,2G,2- | 
[V:1] BAGFG4 | 
[V:2] G8 | 
[V:3] g8 | 
[V:4] G,F,_E,D,E,4 | 
[V:1] F6G2 | 
[V:2] d8 | 
[V:3] a8 | 
[V:4] D,8 | 
[V:1] A2B2c4 | 
[V:2] z4A4 | 
[V:3] f4e4 | 
[V:4] z8 | 
[V:1] d4B4 | 
[V:2] B2G2g4 | 
[V:3] d8 | 
[V:4] G,8 | 
[V:1] c4A4- | 
[V:2] f2e2f2e2- | 
[V:3] c8 | 
[V:4] A,8 | 
[V:1] A2F2G4 | 
[V:2] edd4^c2 | 
[V:3] d4e4 | 
[V:4] F,4E,4 | 
[V:1] A4z4 | 
[V:2] d4F4 | 
[V:3] f4d4 | 
[V:4] D,8 | 
[V:1] c8 | 
[V:2] G6A2 | 
[V:3] e8 | 
[V:4] C,8 | 
[V:1] d8 | 
[V:2] B6c2 | 
[V:3] d8 | 
[V:4] z4G,4- | 
[V:1] B4A4 | 
[V:2] d2e2f4 | 
[V:3] z8 | 
[V:4] G,4F,4 | 
[V:1] G8 | 
[V:2] g4G4 | 
[V:3] c8 | 
[V:4] _E,3D,E,4 | 
[V:1] F4B4- | 
[V:2] A2B4c2 | 
[V:3] d8 | 
[V:4] D,4G,4- | 
[V:1] B2G2A3B | 
[V:2] d2e2f3e | 
[V:3] B4A4 | 
[V:4] G,4F,4 | 
[V:1] c2B4AG | 
[V:2] c2d4c2 | 
[V:3] G8 | 
[V:4] _E,3D,E,4 | 
[V:1] B4A4 | 
[V:2] d3ef4 | 
[V:3] F8 | 
[V:4] D,8 | 
[V:1] B6AG | 
[V:2] B3cd4 | 
[V:3] G3AB3c | 
[V:4] z4G,4- | 
[V:1] B4A4- | 
[V:2] z2G2A3B | 
[V:3] d2B2d2c2- | 
[V:4] G,4F,4 | 
[V:1] A2G2G4- | 
[V:2] c2d4c2 | 
[V:3] c2B2G3A | 
[V:4] _E,3D,E,4 | 
[V:1] G2^FEF4 | 
[V:2] d8- | 
[V:3] B2c2A4 | 
[V:4] D,8 | 
[V:1] G8 ||  
[V:2] d8 ||  
[V:3] G8 ||  
[V:4] G,8 ||  
[V:1] [M:2/1]z8 | 
[V:2] [M:2/1]g8 | 
[V:3] [M:2/1]z8 | 
[V:4] [M:2/1]z8 | 
[V:1] z8 | 
[V:2] f4f4 | 
[V:3] z8 | 
[V:4] z8 | 
[V:1] d8- | 
[V:2] g4g4- | 
[V:3] z8 | 
[V:4] z8 | 
[V:1] d8- | 
[V:2] g2fef4 | 
[V:3] z8 | 
[V:4] z8 | 
[V:1] d8 | 
[V:2] g3fd2f2- | 
[V:3] z8 | 
[V:4] z8 | 
[V:1] c4c4 | 
[V:2] f2ede2f2- | 
[V:3] z8 | 
[V:4] z8 | 
[V:1] d4d4- | 
[V:2] f2g2f2g2- | 
[V:3] z8 | 
[V:4] z8 | 
[V:1] d2cBc4 | 
[V:2] gf_ed_e4 | 
[V:3] z8 | 
[V:4] z8 | 
[V:1] d3cA2B2- | 
[V:2] d3ef2B2- | 
[V:3] d8- | 
[V:4] z8 | 
[V:1] B2A2B2A2- | 
[V:2] Bcd2G2F2- | 
[V:3] d8 | 
[V:4] z8 | 
[V:1] A2GFE4 | 
[V:2] F2G2A4 | 
[V:3] c4c4 | 
[V:4] z8 | 
[V:1] D8 | 
[V:2] B8 | 
[V:3] d4d4- | 
[V:4] G,8 | 
[V:1] z8 | 
[V:2] A8 | 
[V:3] d2cBc3d | 
[V:4] F,4F,4 | 
[V:1] z8 | 
[V:2] z8 | 
[V:3] _e2d3cBA | 
[V:4] G,4G,4- | 
[V:1] z8 | 
[V:2] z8 | 
[V:3] B2c2A4 | 
[V:4] G,2^F,E,F,4 | 
[V:1] z4B4 | 
[V:2] z2d3cde | 
[V:3] G8 | 
[V:4] G,8 | 
[V:1] A2G2A4 | 
[V:2] f2g4^f2 | 
[V:3] z8 | 
[V:4] z8 | 
[V:1] G2B2A2c2- | 
[V:2] g2d2f4 | 
[V:3] z8 | 
[V:4] z8 | 
[V:1] c2BAG4 | 
[V:2] _e2d2_e4 | 
[V:3] z8 | 
[V:4] z8 | 
[V:1] F8 | 
[V:2] d3cd_ef2- | 
[V:3] z4B4 | 
[V:4] z8 | 
[V:1] z8 | 
[V:2] f2_edc4 | 
[V:3] A2G2A4 | 
[V:4] z8 | 
[V:1] z8 | 
[V:2] Bcd_ef3_e | 
[V:3] G2B2A2c2- | 
[V:4] z4F,4 | 
[V:1] z8 | 
[V:2] c2d4c2 | 
[V:3] c2BAG4 | 
[V:4] _E,2D,2E,4 | 
[V:1] z8 | 
[V:2] d2c2d2f2- | 
[V:3] F4z4 | 
[V:4] D,2F,3_E,D,C, | 
[V:1] z4c4 | 
[V:2] f2_ed_e4 | 
[V:3] F4G4 | 
[V:4] B,,2D,2C,4 | 
[V:1] d2f4_ed | 
[V:2] d4F4 | 
[V:3] B4A4 | 
[V:4] B,,4D,4 | 
[V:1] _e4d4- | 
[V:2] G4B4- | 
[V:3] z2c2d4 | 
[V:4] C,4B,,4 | 
[V:1] d2cBc2d2 | 
[V:2] B2AGA4 | 
[V:3] f6_ed | 
[V:4] z4F,4 | 
[V:1] B2d4cB | 
[V:2] G4d4 | 
[V:3] _e2d2f4- | 
[V:4] G,2B,4A,G, | 
[V:1] c2d2B2d2- | 
[V:2] c2B4AG | 
[V:3] f2_ed_e2d2 | 
[V:4] A,2B,2G,2B,2- | 
[V:1] dcA2B4 | 
[V:2] d4z4 | 
[V:3] f4_e2d2- | 
[V:4] B,A,F,2G,4 | 
[V:1] A4F4 | 
[V:2] f6ed | 
[V:3] d2cBA4 | 
[V:4] D,8 | 
[V:1] G4B4 | 
[V:2] e2g3fd2- | 
[V:3] z8 | 
[V:4] z8 | 
[V:1] A3GA2B2- | 
[V:2] def3edc | 
[V:3] z8 | 
[V:4] z8 | 
[V:1] BAG4^F2 | 
[V:2] B2c2A4 | 
[V:3] z8 | 
[V:4] z4D,4 | 
[V:1] G8 | 
[V:2] G4B4 | 
[V:3] z8 | 
[V:4] E,4G,4 | 
[V:1] z8 | 
[V:2] A3FG2A2 | 
[V:3] z4c4 | 
[V:4] F,3D,E,2F,2 | 
[V:1] z8 | 
[V:2] B2d3cA2 | 
[V:3] d4f4 | 
[V:4] B,,2B,3A,F,2 | 
[V:1] z8 | 
[V:2] B2c3BAG | 
[V:3] e3de2f2- | 
[V:4] G,2A,3G,F,E, | 
[V:1] z8 | 
[V:2] A2B2G4 | 
[V:3] fed3^c^c=B | 
[V:4] F,2G,2E,4 | 
[V:1] [M:3/1]A6B2c4 | 
[V:2] [M:3/1]A4f4e4 | 
[V:3] [M:3/1]d8z4 | 
[V:4] [M:3/1]D,8z4 | 
[V:1] d4f6e2 | 
[V:2] f8d4 | 
[V:3] z12 | 
[V:4] z12 | 
[V:1] d8^c4 | 
[V:2] f4e8 | 
[V:3] z12 | 
[V:4] z12 | 
[V:1] d12 | 
[V:2] d12 | 
[V:3] B8A4 | 
[V:4] G,8F,4 | 
[V:1] z12 | 
[V:2] z12 | 
[V:3] B8G4 | 
[V:4] G,4D,4E,4 | 
[V:1] z12 | 
[V:2] z12 | 
[V:3] B4A8 | 
[V:4] G,6^F,2F,2E,2 | 
[V:1] [M:2/1]z4B4 | 
[V:2] (3:2:1z12 | 
[V:3] [M:2/1]G8 | 
[V:4] [M:2/1]G,8 | 
[V:1] A2G2A4 | 
[V:2] [M:2/1]z4f4 | 
[V:3] z8 | 
[V:4] z8 | 
[V:1] G2F2G3A | 
[V:2] e2d2e4 | 
[V:3] z8 | 
[V:4] z8 | 
[V:1] B4A4 | 
[V:2] d2Bcdef2 | 
[V:3] z8 | 
[V:4] z8 | 
[V:1] G2F2E4 | 
[V:2] e2d3^c^c=B | 
[V:3] z8 | 
[V:4] z8 | 
[V:1] D8 | 
[V:2] d4z2G2 | 
[V:3] z4B4 | 
[V:4] z8 | 
[V:1] z8 | 
[V:2] A2B2c3A | 
[V:3] A2G2A4 | 
[V:4] z4F,4 | 
[V:1] z8 | 
[V:2] Bcd4c2 | 
[V:3] G2F2G3A | 
[V:4] _E,2D,2E,4 | 
[V:1] z8 | 
[V:2] d4z4 | 
[V:3] Bcd3ef2 | 
[V:4] D,2B,4A,2 | 
[V:1] z8 | 
[V:2] z8 | 
[V:3] e2d3^c^c=B | 
[V:4] G,2F,2E,4 | 
[V:1] z4F4 | 
[V:2] f4d2f2 | 
[V:3] d8 | 
[V:4] D,4z2D,2 | 
[V:1] G6FE | 
[V:2] e4d2g2 | 
[V:3] z2G2B2c2 | 
[V:4] E,3F,G,2C,2 | 
[V:1] F4G4 | 
[V:2] f2d3cg2 | 
[V:3] A4G4 | 
[V:4] D,2F,2E,4 | 
[V:1] A4z2A2 | 
[V:2] f2d2[M:2/1](3:2:4f3e d c | 
[V:3] z4F4 | 
[V:4] D,8 | 
[V:1] B3cd_ed2- | 
[V:2] (3B3cd2[M:2/1]G2g2 | 
[V:3] G6FE | 
[V:4] z8 | 
[V:1] dcc4=B2 | 
[V:2] f3ed4 | 
[V:3] F4G4 | 
[V:4] z8 | 
[V:1] c2A4d2- | 
[V:2] c4F4 | 
[V:3] A4f4 | 
[V:4] z4D,4 | 
[V:1] dcc2B2c2 | 
[V:2] G6FE | 
[V:3] e4d2e2- | 
[V:4] E,3F,G,2C,2 | 
[V:1] A4G4 | 
[V:2] F4G4 | 
[V:3] edd4^c2 | 
[V:4] D,2F,2E,4 | 
[V:1] z4F4 | 
[V:2] A2f2d2f2 | 
[V:3] d8 | 
[V:4] D,4z2D,2 | 
[V:1] G6FE | 
[V:2] e4d2g2 | 
[V:3] z2G2B2c2 | 
[V:4] E,3F,G,2C,2 | 
[V:1] F4G4 | 
[V:2] f2d3cg2 | 
[V:3] A4G4 | 
[V:4] D,2F,2E,4 | 
[V:1] A8 | 
[V:2] f4z2d2- | 
[V:3] z2d3cde | 
[V:4] D,8- | 
[V:1] z2A2A2B2- | 
[V:2] dcdef3e | 
[V:3] f3edcd2- | 
[V:4] D,8- | 
[V:1] B2AG^FGAF | 
[V:2] dcd3cA2 | 
[V:3] d2cBA4 | 
[V:4] D,8 | 
[V:1] G8- | 
[V:2] B6AG | 
[V:3] G8- | 
[V:4] G,,8- | 
[V:1] G8 |]  
[V:2] d8 |]  
[V:3] G8 |]  
[V:4] G,,8 |]  



